X: 45
T: Missa octavi toni &mdash; Kyrie
C: Gaspar van Weerbeke
%%abc-version 2.0
%%abcx-abcm2ps-target-version 5.9.1 (29 Sep 2008)
%%abc-creator hum2abc beta
%%abcx-conversion-date 2022/03/06 13:05:56
%%abc-copyright Copyright 2016, Kolb, Paul
%%abc-edited-by Zybina, Karina
%%humdrum-veritas 3997999736
%%humdrum-veritas-data 236591507
%%linebreak <none>
%%barnumbers 0
L: 1/4
M: 3/2
N: Derived from Gas0204a-Missa_Octavi_toni-Kyrie.krn
%%staves [1 2 3 4]
V: 1 clef=treble
V: 2 clef=treble-8
V: 3 clef=treble-8
V: 4 clef=bass
K: C
[V:1] G4G2 | 
[V:2] d3B2G | 
[V:3] G6 | 
[V:4] G,4E,2 | 
[V:1] E4G2 | 
[V:2] G2Ee>dB | 
[V:3] c4B2 | 
[V:4] C,4E,2 | 
[V:1] A3G/F/E2 | 
[V:2] c3A3 | 
[V:3] A2>B2c2 | 
[V:4] A,,2C,D,A,,2 | 
[V:1] D2z2G2 | 
[V:2] A2F2G2 | 
[V:3] d4B3/G/ | 
[V:4] D,4G,,2 | 
[V:1] B2>G2A2 | 
[V:2] zd2ef2 | 
[V:3] G4c2 | 
[V:4] z2z2F,2 | 
[V:1] Gc2BB3/A/ | 
[V:2] g2g2zg | 
[V:3] e2d4 | 
[V:4] E,F,G,4 | 
[V:1] c2A2BG- | 
[V:2] e2f2d2 | 
[V:3] c2d2B2 | 
[V:4] A,2D,2G,2 | 
[V:1] G/A<BA/GF2 | 
[V:2] zd>cBAd | 
[V:3] G4A2 | 
[V:4] z2G,,2D,2 | 
[V:1] GA2G2^F | 
[V:2] BA2d>cB/A/ | 
[V:3] Bc2BA2 | 
[V:4] G,F,2G,D,2 | 
[V:1] G4z2 | 
[V:2] B2G>A B/c/d- | 
[V:3] G4z2 | 
[V:4] G,,4G,2 | 
[V:1] z6 | 
[V:2] d/c/A2G2^F | 
[V:3] z6 | 
[V:4] D,C,D,B,,A,,2 | 
[V:1] z6 | 
[V:2] G4z2 | 
[V:3] B4c3/B/ | 
[V:4] G,,4z2 | 
[V:1] B2>B2cB/A/ | 
[V:2] z6 | 
[V:3] G4F2 | 
[V:4] z6 | 
[V:1] G2^F2GB | 
[V:2] z6 | 
[V:3] GBA2zG | 
[V:4] z6 | 
[V:1] A2zGFD | 
[V:2] z6 | 
[V:3] FDE2D2 | 
[V:4] z6 | 
[V:1] EA2FE2 | 
[V:2] z6 | 
[V:3] zDF>G A/B/c | 
[V:4] z6 | 
[V:1] DG2FE2 | 
[V:2] dc2dA2- | 
[V:3] de2d2^c | 
[V:4] z6 | 
[V:1] D2zDF3/G/ | 
[V:2] A2_B2A2 | 
[V:3] d4z2 | 
[V:4] D,6 | 
[V:1] A2B2c2- | 
[V:2] D2d2f2 | 
[V:3] d3c/B/A2 | 
[V:4] F,2G,2F,E,/D,/ | 
[V:1] cB/A/G3A- | 
[V:2] e4z2 | 
[V:3] c4BA | 
[V:4] C,4E,F, | 
[V:1] AB2A2^G | 
[V:2] z2ze3 | 
[V:3] d2>c2B2 | 
[V:4] D,G,2A,E,2 | 
[V:1] A2zA2D | 
[V:2] e2d>cA2 | 
[V:3] A2zD>EF/G/ | 
[V:4] A,,2D,2zD,- | 
[V:1] FGA2B3/c/ | 
[V:2] zDEFG3/A/ | 
[V:3] ABc2d2 | 
[V:4] D,B,,A,,2G,,2 | 
[V:1] d>cAGc2 | 
[V:2] B/c/d/e/fdf3/e/ | 
[V:3] BGcBA2 | 
[V:4] G,2F,G,F,2 | 
[V:1] BA2G2^F | 
[V:2] d/c/dBcd2 | 
[V:3] GFG2A2 | 
[V:4] G,D,E,2D,2 | 
[V:1] G4 ||  
[V:2] d4 ||  
[V:3] G4 ||  
[V:4] G,,4 ||  
[V:1] [M:2/2]z4 | 
[V:2] [M:2/2]z4 | 
[V:3] [M:2/2]G4- | 
[V:4] [M:2/2]G,4 | 
[V:1] z4 | 
[V:2] z4 | 
[V:3] G4 | 
[V:4] E,2C,2 | 
[V:1] z4 | 
[V:2] z4 | 
[V:3] A3B | 
[V:4] F,3E, | 
[V:1] z4 | 
[V:2] z4 | 
[V:3] c3B/A/ | 
[V:4] C,4 | 
[V:1] z4 | 
[V:2] z4 | 
[V:3] G2A2- | 
[V:4] E,2D,2 | 
[V:1] z4 | 
[V:2] z4 | 
[V:3] A2G2 | 
[V:4] C,2B,,C,- | 
[V:1] z4 | 
[V:2] z4 | 
[V:3] EFDG- | 
[V:4] C,D,2B,, | 
[V:1] z4 | 
[V:2] z4 | 
[V:3] G^FG2- | 
[V:4] A,,2G,,2- | 
[V:1] z4 | 
[V:2] z4 | 
[V:3] GE2C | 
[V:4] G,,2C,2- | 
[V:1] z4 | 
[V:2] z4 | 
[V:3] D2z2 | 
[V:4] C,A,,B,,2 | 
[V:1] z4 | 
[V:2] z4 | 
[V:3] c3A | 
[V:4] C,4 | 
[V:1] G3E | 
[V:2] z4 | 
[V:3] B2c2 | 
[V:4] z4 | 
[V:1] F2G2 | 
[V:2] z4 | 
[V:3] A2G2 | 
[V:4] z4 | 
[V:1] E2D2 | 
[V:2] z4 | 
[V:3] c2B2 | 
[V:4] z4 | 
[V:1] G3F | 
[V:2] z4 | 
[V:3] G4 | 
[V:4] z4 | 
[V:1] D2G2 | 
[V:2] z4 | 
[V:3] B4 | 
[V:4] z4 | 
[V:1] FA>GF- | 
[V:2] z4 | 
[V:3] A2d2- | 
[V:4] z4 | 
[V:1] FE/D/E2 | 
[V:2] z4 | 
[V:3] d2^c2 | 
[V:4] z4 | 
[V:1] z4 | 
[V:2] z4 | 
[V:3] d3c/B/ | 
[V:4] D,2F,2 | 
[V:1] z4 | 
[V:2] z4 | 
[V:3] cd2^c | 
[V:4] E,D,E,2 | 
[V:1] z4 | 
[V:2] z4 | 
[V:3] d>cAG- | 
[V:4] D,2F,E,- | 
[V:1] z4 | 
[V:2] z4 | 
[V:3] GFE2 | 
[V:4] E,D,2^C, | 
[V:1] z4 | 
[V:2] z4 | 
[V:3] D2zG- | 
[V:4] D,2B,,2 | 
[V:1] z4 | 
[V:2] z4 | 
[V:3] GAB2 | 
[V:4] C,>B,,G,,2 | 
[V:1] z4 | 
[V:2] z4 | 
[V:3] c>BG2 | 
[V:4] A,,2B,,C,- | 
[V:1] z4 | 
[V:2] z4 | 
[V:3] ED2G- | 
[V:4] C,B,,G,,2 | 
[V:1] z4 | 
[V:2] z2c2 | 
[V:3] GE^F2 | 
[V:4] B,,C,A,,2 | 
[V:1] G4 | 
[V:2] B2d2- | 
[V:3] G4 | 
[V:4] G,,4 | 
[V:1] F2A2- | 
[V:2] dcA2 | 
[V:3] D4 | 
[V:4] z4 | 
[V:1] AGE2 | 
[V:2] d2c2 | 
[V:3] z2A2 | 
[V:4] z4 | 
[V:1] A2G2 | 
[V:2] f2e2 | 
[V:3] F2C2 | 
[V:4] z4 | 
[V:1] FDE2 | 
[V:2] dd2^c | 
[V:3] D2A2 | 
[V:4] z4 | 
[V:1] DEFG | 
[V:2] d3c | 
[V:3] z2d2- | 
[V:4] D,3E, | 
[V:1] A2B2 | 
[V:2] A2G2 | 
[V:3] dcB2 | 
[V:4] F,2G,2 | 
[V:1] c2BA- | 
[V:2] z2zA- | 
[V:3] A2Gc- | 
[V:4] F,2G,F,- | 
[V:1] AD2G- | 
[V:2] AB2c | 
[V:3] cBG2 | 
[V:4] F,G,2E, | 
[V:1] G^FF3/E/ | 
[V:2] d4 | 
[V:3] A4 | 
[V:4] D,>C,D,2 | 
[V:1] G4 | 
[V:2] B2e2- | 
[V:3] G4- | 
[V:4] G,,2C,2- | 
[V:1] E3C | 
[V:2] ed/c/Bc | 
[V:3] G4 | 
[V:4] C,2E,2 | 
[V:1] F>E D/C/D- | 
[V:2] d2A2 | 
[V:3] A4 | 
[V:4] D,2F,2 | 
[V:1] DC2B, | 
[V:2] zef2 | 
[V:3] G2F2 | 
[V:4] E,D,/C,/D,2 | 
[V:1] C>DE3/F/ | 
[V:2] e>fgc- | 
[V:3] G3A | 
[V:4] C,4- | 
[V:1] GA_B/A/G/F/ | 
[V:2] c/B/A/G/F2 | 
[V:3] Gc2B | 
[V:4] C,2D,2 | 
[V:1] E4 ||  
[V:2] G4 ||  
[V:3] c4 ||  
[V:4] C,4 ||  
[V:1] [M:3/2]G4G2 | 
[V:2] [M:3/2]d4e2 | 
[V:3] [M:3/2]G4G2 | 
[V:4] [M:3/2]z6 | 
[V:1] A2>B2c2 | 
[V:2] f2>e2f2 | 
[V:3] F2>G2A2 | 
[V:4] z6 | 
[V:1] B4GE | 
[V:2] g>fd>c B/A/G | 
[V:3] G4B2 | 
[V:4] G,,4G,,2 | 
[V:1] F2>G2A/B/c/d/ | 
[V:2] FA2Gz2 | 
[V:3] Ad2BA2 | 
[V:4] D,2>E,2F,2 | 
[V:1] BA2G2^F | 
[V:2] d2Bcd2 | 
[V:3] GFG2A2 | 
[V:4] G,D,E,2D,2 | 
[V:1] G2z2z2 | 
[V:2] BGG2z2 | 
[V:3] G4z2 | 
[V:4] E,2>C,2C,2 | 
[V:1] E2E>FGA | 
[V:2] A3G/F<EF/ | 
[V:3] c6 | 
[V:4] z2z2C,3/D,/ | 
[V:1] Gc2A2G | 
[V:2] GAFAE2 | 
[V:3] c4B2 | 
[V:4] E,2<F,2G,2 | 
[V:1] FA2FE2 | 
[V:2] zF>GA/B/cA | 
[V:3] A>Bcd2^c | 
[V:4] D,2zD,A,2 | 
[V:1] D2z2F2 | 
[V:2] A2z2z2 | 
[V:3] d4d2 | 
[V:4] D,4z2 | 
[V:1] EF>EA2G | 
[V:2] z6 | 
[V:3] cdA2B2 | 
[V:4] z6 | 
[V:1] FE2D2^C | 
[V:2] z6 | 
[V:3] AGAFE2 | 
[V:4] z6 | 
[V:1] D4z2 | 
[V:2] A2A>GFE | 
[V:3] D4FG | 
[V:4] D,2F,>E,D,C, | 
[V:1] z6 | 
[V:2] DEFD2C | 
[V:3] _BA2G2^F | 
[V:4] _B,,C,D,B,,A,,2 | 
[V:1] D4FG | 
[V:2] D>EFGA_B | 
[V:3] G2z2z2 | 
[V:4] G,,2z2z2 | 
[V:1] _BA2G2^F | 
[V:2] Gd2_BA2 | 
[V:3] z6 | 
[V:4] z6 | 
[V:1] G4z2 | 
[V:2] G3E>FG | 
[V:3] G4c2- | 
[V:4] G,,2C,4 | 
[V:1] G2c2BA | 
[V:2] CGA2Gc | 
[V:3] cBAd2c | 
[V:4] E,2F,2G,A,- | 
[V:1] Bd2cB/A/G | 
[V:2] d>ef2de/c/ | 
[V:3] BGA2GE | 
[V:4] A,G,2^F,G,2 | 
[V:1] FA2G2^F | 
[V:2] dABd3 | 
[V:3] DFGBA2 | 
[V:4] zD,B,,G,,D,2 | 
[V:1] G4 |]  
[V:2] d4 |]  
[V:3] G4 |]  
[V:4] G,,4 |]  


